X:1
T:Agnus Dei - Morley
T:James Gibb editions
T:#
%%score [ 1 2 3 4 ]
L:1/8
Q:1/4=90
M:4/4
K:G
V:1 treble nm="Soprano" snm="S"
V:2 treble nm="Alto" snm="A"
V:3 treble-8 nm="Tenor" snm="T"
V:4 bass nm="Bass" snm="B"
V:1
"^Agnus Dei""^Thomas Morley \n(1557-1603)" z8 | z8 | z8 | z4 B4- | B2 B2 c4- | c4 B4 | %6
w: |||A\-|* gnus De\-|* i,|
[M:4/4] z2 B2 d4- | d4 ^c4 | z2 ^c2 d4- | d2 =c2 (B4 | A2 G2 c2 B2 | A2 G2 A4) | B8 | z4 z2 B2 | %14
w: qui tol\-|* is|pec- ca\-|* ta mun\-|||di,|pec-|
 e6 d2 | (B2 c3 B B2- | B2 A2) B4 | z8 | z4 z2 B2- | B2 A2 G4 | F4 E4 | B,4 z2 e2- | e2 d2 c4 | %23
w: ca- ta|mun\- * * *|* * di,||mi\-|* se- re-|re no-|bis, mi\-|* se- re-|
 B2 (d3 ^c B2 | ^A2 B4 A2) | B4 z4 | z2 d4 =c2 | B2 A2 (=c2 B2 | AG G4 F2) | G4 z4 | z8 | %31
w: re no\- * *||bis,|mi- se-|re- re no\- *||bis,||
 z4 z2 d2- | d2 ^c2 B2 A2 |[Q:1/4=89] (G2[Q:1/4=86] F3[Q:1/4=85] E[Q:1/4=84] E2- || %34
w: mi\-|* se- re- re|no\- * * *|
[M:3/2][Q:1/4=82] E2[Q:1/4=80] ^D2[Q:1/4=80] E6) z2 |] %35
w: * * bis.|
V:2
 z8 | E6 E2 | G8 | F2 F4 F2 | ^G4 A4 | z2 E2 G4- |[M:4/4] G4 F2 F2 | F8- | F4 F2 F2 | G6 F2 | %10
w: |A- gnus|De-|i, A- gnus|De- i,|qui tol\-|* lis, qui|tol\-|* lis pec-|ca- ta|
 (E2 D2 EFGE | F2 G4 F2) | G8 | z4 F2 G2- | G2 A2 (B3 A | GFEF G2 F2 | E4 D2 G2) | F2 F4 E2 | %18
w: mun\- * * * * *||di,|pec- ca\-|* ta mun\- *|||di, mi- se-|
 D2 ^C2 E4 | B,2 (F3 E E2- | E2 ^D2) E2 G2- | G2 F2 E3 F | (GA B2 E2 A2 | G2 F3 E D2 | %24
w: re- re no-|bis, no\- * *|* * bis, mi\-|* se- re- re|no\- * * * *||
 ^C2 F3 E C2 | D2 B,2) F,4 | z4 z2 G2- | G2 F2 E2 D2 | (E2 D3 C A,2) | B,2 G4 F2 | %30
w: |* * bis,|mi\-|* se- re- re|no\- * * *|bis, mi- se-|
 E2 D2 (CB, B,2- | B,2 A,2) B,2 B2- | B2 A2 G2 F2 | (D4 B,4- ||[M:3/2] B,4 ^G,6) z2 |] %35
w: re- re no\- * *|* * bis, mi\-|* se- re- re|no\- *|* bis.|
V:3
 B6 B2 | c8 | B2 B2 (e4- | e2 ^d^c d e2 d) | e2 e2 (A3 B | c2 A2 e2 E2- | %6
w: A- gnus|De-|i, qui tol\-||lis, qui tol\- *||
[M:4/4][K:treble-8] EFGA B^c d2- | d^c B2 ^A2 B2- | B2 ^A2) B2 B2 | e6 d2 | (c2 B2 A2 G2 | %11
w: ||* * lis pec-|ca- ta|mun\- * * *|
 d2 e2 d4) | G4 z2 B2 | d6 G2 | (c4 B3 ^c | d2 A2 D2 F2 | G2 E2) F2 d2- | d2 ^c2 B4 | A4 G4 | %19
w: |di, pec-|ca- ta|mun\- * *||* * di, mi\-|* se- re-|re no-|
 F4 (G3 A | B4) E4 | z2 B4 A2 | G2 F2 (A2 EF | GAB^c de f2- | fe d2 ^c4) | B2 d4 ^c2 | %26
w: bis, no\- *|* bis,|mi- se-|re- re no\- * *|||bis, mi- se-|
 B2 A2 (G3 A | B^c d2 G2 B2 | =c2 B2 A4) | G4 B4- | B2 A2 G2 F2 | E4 F4 | d6 ^c2 | B2 A2 (G4 || %34
w: re- re no\- *|||bis, mi\-|* se- re- re|no- bis,|mi- se-|re- re no\-|
[M:3/2] F4 E6) z2 |] %35
w: * bis.|
V:4
 z8 | z8 | E,6 E,2 | B,8 | E,4 z4 | z8 |[M:4/4] z2 E,2 (B,,3 ^C, | D,3 E, F,4- | F,4) B,,4 | z8 | %10
w: ||A- gnus|De-|i,||qui tol\- *||* lis,||
 z8 | z8 | z2 E,2 G,4- | G,2 F,2 (D,2 E,2 | C,4 G,,4- | G,,2 A,,2 B,,2 D,2 | C,4) B,,2 B,2- | %17
w: ||pec- ca\-|* ta mun\- *|||* di, mi\-|
 B,2 A,2 G,4 | F,4 (E,4 | ^D,4 E,4) | B,,4 z2 E,2- | E,2 D,2 C,4 | B,,4 (A,,B,,C,D, | %23
w: * se- re-|re no\-||bis, mi\-|* se- re-|re no\- * * *|
 E,2 B,,2- B,,^C,D,E, | F,8) | B,,2 B,4 A,2 | G,2 F,2 (E,4 | D,4 E,2 G,2 | C,2 G,2 D,4) | %29
w: ||bis, mi- se-|re- re no\-|||
 G,,4 G,4- | G,2 F,2 E,2 D,2 | (C,4 B,,4- | B,,8 | B,,8 ||[M:3/2] B,,4 E,6) z2 |] %35
w: bis, mi\-|* se- re- re|no\- *|||* bis.|

